packages/tokens/icons/push/size32Px.svg

<svg viewBox="0 0 32 32" fill="none" xmlns="http://www.w3.org/2000/svg" width="1em" height="1em"><path d="M16 29.5L16 16.5" stroke="currentColor" stroke-linecap="round" stroke-linejoin="round"/><path d="M11 21L16 16L21 21" stroke="currentColor" stroke-linecap="round" stroke-linejoin="round"/><path d="M24.5 23C27.4167 23 29.5 20.2795 29.5 17.5C29.5 14.7204 28.125 12.2984 25.5 12C25.5085 8.06358 22.334 5 18.5 5C15.0312 5 11.5551 7.59435 11 11C8 11 6 13 6 16C4.05005 15.9345 2.5 17.4914 2.5 19.5C2.5 21.4882 4.40034 23 6.33333 23H7.5" stroke="currentColor" stroke-linecap="round" stroke-linejoin="round"/></svg>

<svg xmlns="http://www.w3.org/2000/svg" fill="none" viewBox="0 0 32 32" width="1em" height="1em"><path stroke="currentColor" stroke-linecap="round" stroke-linejoin="round" d="M16 29.5v-13M11 21l5-5 5 5"/><path stroke="currentColor" stroke-linecap="round" stroke-linejoin="round" d="M24.5 23c2.917 0 5-2.72 5-5.5s-1.375-5.202-4-5.5c.009-3.936-3.166-7-7-7-3.469 0-6.945 2.594-7.5 6-3 0-5 2-5 5-1.95-.066-3.5 1.491-3.5 3.5 0 1.988 1.9 3.5 3.833 3.5H7.5"/></svg>
